X:1
T:Title
%%score ( 1 2 ) { 3 | 4 }
L:1/8
Q:1/4=103
M:4/4
K:C
V:1 treble nm="Grand Piano, Unnamed-000"
V:2 treble 
V:3 bass nm="Choir Pad, Salvete Flores"
V:4 bass 
V:1
 [CE]2 [CD]2- [CD][CE] [CF]2 | [DF]2 E2 [FG]2 [EG]2 | [CE]2 [CD]2- [CD][CE] [A,F]2 | z4 A2 z2 | %4
w: By~John~Bacchus~Dykes,~1875 * * * *||||
 [EG]2 [Ec]2- [Ec][DB] [CA]2 | z4 .A2 z2 | [B,D]2 [CE][B,D] [CE][DF] [EG]2 | %7
w: |||
 [Fc]2 [Ge]2- [Ge][Fd] [Ec]2- | [Ec]6 z2 |] %9
w: ||
V:2
 x8 | x8 | x8 | [B,F]2 [CE]2 FD [EG]2 | x8 | [EG]2 [Gd]2 ^F-[FB] [DG]2 | x8 | x8 | x8 |] %9
V:3
 G,2 G,2- G,/ z/ G, A,2 | B,2 C2 F,2 G,2 | G,2 A,2- A,G, F,2 | G,2 G,2 A,B, C2 | %4
 G,2 G,2- G,G, E,2 | B,2 B,2 C2 B,2 | G,2 G,2 G,2[K:treble] C2 | C2 C2 B,2 G,2- | G,6 z2 |] %9
V:4
 C,2 z2 z2 G,2 | G,2 C,2 C,2 C,2 | E,2 F,2- F,E, D,2 | D,2 C,2 C,2 C,2 | B,,2 A,,2- A,,B,, C,2 | %5
 ^C,2 D,2 D,2 G,2 | G,,2 C,2 C,2 C,2 | A,2 G,2 G,,2 C,2- | C,6 z2 |] %9

